X:19006
T:Scan Tester's 1 and 2
R:Reel
C:Scan Tester (1887-1972)
O:England; Sussex
Z:Paul Hardy's Session Tunebook 2022 (see www.paulhardy.net). Creative Commons cc by-nc-sa licenced.
M:4/4
L:1/8
Q:1/4=160
K:G
T:Scan Tester's No. 1
BA|"G"G2G2GABc|d4d2B2|"C"c2d2e2f2|"G"g4g2b2|"D"a2g2f2e2|"Em"e2d2B3d|"Am"e2d2c2B2|"D"A4ABAG|
"G"G2G2GABc|d4d2B2|"C"c2d2e2f2|"G"g4g2b2|"Am"a2g2f2e2|"Em"e2d2B3A|"G"G2B2 "D7"cBA2|"G"G6||
|:BA|"G"G3A B2c2|"Em"e2d2B2B2|"D7"A3B cBAc|"Em"e2d2B2A2|"G"G3A B2c2|"Em"e2d2B2g2|"D7"fedc B2A2|"G"G6:|
T:Scan Tester's No. 2
Bc|"G"d2dd d2d2|"Am"d2^c2=c2B2|"A7"A3B A2G2|"D"F6DE|F2EF "G"G2FG|"D"A2d4cB|"A7"A2G2F2E2|"D"D6:|
|:Bc|"G"d2G2 "Em"B2AB|"Am"c2E2"D"A3B|"Am"c2e2"D7"d2c2|"G"B4 B3c|d2G2 "Em"B2AB|"Am"c2E2"D"A3B|"Am"c2ec "D7"B2A2|"G"G6:|

